X: 12
T:Rakes of Kildare
R:jig
M:6/8
L:1/8
Q:3/8=120
K:Ador
G|EAA AGA|Bcd e2f|~g3 ege|dBA GFG|EAA AGA|
Bcd e2f|~g3 edB|A3 A2:|a|aea aea|
aga b2a|~g3 ege|[1 dBA G2a|aea aea|aga b2a|~g3 edB|
A3 A2a:|[2 dBG BAG|EAA AGA|Bcd e2f|~g3 edB|A3 A2|]
